X: 10432
Q: "Slow"
M: C
L: 1/8
K: G
d |\
(AG)(AB) c3d/e/ | d<B (G>B) A3(B/c/) |\
d2d2 d3(e/f/) | g2g2 g3(f/e/) |\
(dB)(AB) c3(d/e/) | (d<B) (A>B) G2zB |
e2f2 g3G | A2B2 E2zG |\
(d>e)(d>g) (ga)Hb (g/e/) | (d<B) (A>B) G2 |]


